assets/img/in.svg

<svg width="27" height="23" viewBox="0 0 27 23" fill="none" xmlns="http://www.w3.org/2000/svg">
<path d="M3.26087 0C1.375 0 0.0053074 1.11252 0.0053074 2.64263C0.0053074 4.1781 1.40761 5.3396 3.26087 5.3396C5.14674 5.3396 6.51643 4.2056 6.51643 2.61129C6.42948 1.07582 5.08696 0 3.26087 0ZM0.543478 6.41484C0.244565 6.41484 0 6.65559 0 6.94984V22.465C0 22.7592 0.244565 23 0.543478 23H5.97826C6.27717 23 6.52174 22.7592 6.52174 22.465V6.94984C6.52174 6.65559 6.27717 6.41484 5.97826 6.41484H0.543478ZM10.6957 6.41484C10.3967 6.41484 10.1522 6.65559 10.1522 6.94984V22.465C10.1522 22.7592 10.3967 23 10.6957 23H15.587C15.887 23 16.1304 22.7603 16.1304 22.465V14.4399V14.3062V14.1724C16.1304 12.9045 17.1199 11.8716 18.3808 11.7753C18.446 11.7646 18.5109 11.7649 18.5761 11.7649C18.6413 11.7649 18.7062 11.7646 18.7714 11.7753C20.0323 11.8716 21.0217 12.9045 21.0217 14.1724V22.465C21.0217 22.7603 21.2652 23 21.5652 23H26.4565C26.7554 23 27 22.7592 27 22.465V13.3699C27 9.90842 25.1136 6.41484 20.9071 6.41484C18.9941 6.41484 17.5489 7.14257 16.6739 7.74713V6.94984C16.6739 6.65559 16.4293 6.41484 16.1304 6.41484H10.6957Z" fill="url(#paint0_linear_326_290)"/>
<defs>
<linearGradient id="paint0_linear_326_290" x1="25.8088" y1="21.6471" x2="-1.59125" y2="6.38439" gradientUnits="userSpaceOnUse">
<stop stop-color="#FFE5A2"/>
<stop offset="0.505208" stop-color="#BF841A"/>
<stop offset="1" stop-color="#FFCD74"/>
</linearGradient>
</defs>
</svg>

<svg width="27" height="23" fill="none" xmlns="http://www.w3.org/2000/svg"><path d="M3.26 0C1.376 0 .006 1.113.006 2.643c0 1.535 1.403 2.697 3.256 2.697 1.886 0 3.255-1.134 3.255-2.729C6.43 1.076 5.087 0 3.261 0zM.544 6.415A.54.54 0 000 6.95v15.515A.54.54 0 00.543 23h5.435a.54.54 0 00.544-.535V6.95a.54.54 0 00-.544-.535H.543zm10.153 0a.54.54 0 00-.544.535v15.515a.54.54 0 00.544.535h4.891c.3 0 .543-.24.543-.535v-8.293c0-1.268.99-2.3 2.25-2.397.066-.01.13-.01.196-.01.065 0 .13 0 .195.01 1.261.097 2.25 1.13 2.25 2.397v8.293a.54.54 0 00.544.535h4.891a.54.54 0 00.544-.535V13.37c0-3.462-1.886-6.955-6.093-6.955a7.425 7.425 0 00-4.233 1.332V6.95a.54.54 0 00-.544-.535h-5.434z" fill="url(#paint0_linear_326_290)"/><defs><linearGradient id="paint0_linear_326_290" x1="25.809" y1="21.647" x2="-1.591" y2="6.384" gradientUnits="userSpaceOnUse"><stop stop-color="#FFE5A2"/><stop offset=".505" stop-color="#BF841A"/><stop offset="1" stop-color="#FFCD74"/></linearGradient></defs></svg>
